fs/mail_dismiss_20_regular.svg

<svg viewBox="0 0 20 20" fill="none" xmlns="http://www.w3.org/2000/svg" height="1em" width="1em">
  <path d="M19 5.5C19 7.98528 16.9853 10 14.5 10C12.0147 10 10 7.98528 10 5.5C10 3.01472 12.0147 1 14.5 1C16.9853 1 19 3.01472 19 5.5ZM16.3536 4.35355C16.5488 4.15829 16.5488 3.84171 16.3536 3.64645C16.1583 3.45118 15.8417 3.45118 15.6464 3.64645L14.5 4.79289L13.3536 3.64645C13.1583 3.45118 12.8417 3.45118 12.6464 3.64645C12.4512 3.84171 12.4512 4.15829 12.6464 4.35355L13.7929 5.5L12.6464 6.64645C12.4512 6.84171 12.4512 7.15829 12.6464 7.35355C12.8417 7.54882 13.1583 7.54882 13.3536 7.35355L14.5 6.20711L15.6464 7.35355C15.8417 7.54882 16.1583 7.54882 16.3536 7.35355C16.5488 7.15829 16.5488 6.84171 16.3536 6.64645L15.2071 5.5L16.3536 4.35355ZM17 14.5V10.4003C17.3578 10.2174 17.6929 9.99647 18 9.74284V14.5C18 15.8807 16.8807 17 15.5 17H4.5C3.11929 17 2 15.8807 2 14.5V6.5C2 5.11929 3.11929 4 4.5 4H9.20703C9.11588 4.32228 9.05337 4.65659 9.02242 5H4.5C3.67157 5 3 5.67157 3 6.5V6.802L10 10.9199L11.4414 10.0718C11.766 10.2894 12.1151 10.4733 12.4836 10.6186L10.2535 11.931C10.1231 12.0077 9.96661 12.0205 9.82751 11.9693L9.74649 11.931L3 7.963V14.5C3 15.3284 3.67157 16 4.5 16H15.5C16.3284 16 17 15.3284 17 14.5Z" fill="#212121"/>
</svg>

<svg viewBox="0 0 20 20" fill="none" xmlns="http://www.w3.org/2000/svg" height="1em" width="1em">
  <path d="M19 5.5a4.5 4.5 0 1 1-9 0 4.5 4.5 0 0 1 9 0Zm-2.646-1.146a.5.5 0 0 0-.708-.708L14.5 4.793l-1.146-1.147a.5.5 0 0 0-.708.708L13.793 5.5l-1.147 1.146a.5.5 0 0 0 .708.708L14.5 6.207l1.146 1.147a.5.5 0 0 0 .708-.708L15.207 5.5l1.147-1.146ZM17 14.5v-4.1a5.507 5.507 0 0 0 1-.657V14.5a2.5 2.5 0 0 1-2.5 2.5h-11A2.5 2.5 0 0 1 2 14.5v-8A2.5 2.5 0 0 1 4.5 4h4.707a5.48 5.48 0 0 0-.185 1H4.5A1.5 1.5 0 0 0 3 6.5v.302l7 4.118 1.441-.848c.325.217.674.401 1.043.547l-2.23 1.312a.5.5 0 0 1-.426.038l-.082-.038L3 7.963V14.5A1.5 1.5 0 0 0 4.5 16h11a1.5 1.5 0 0 0 1.5-1.5Z" fill="#212121"/>
</svg>
